X:55
T:sesiwn yng nghymru
R:jig
O:traditional welsh
Z:crm
M:6/8
L:1/8
Q:3/8=120
K:D
AGF A2F|GAB AzA|d2c Bcd|ABc ded|
c2B ecA|e2A A2F|GAB BAF|GEF G2A:|
FGA {G}AFD|GAB {c}BGE|FGA Bcd|cBc dzA|
~F3 AFD|GDG BGE|FGA Bcd|cBc d3|
